icons/src/svg/home_inactive.svg

<svg width="32" height="32" viewBox="0 0 32 32" fill="none" xmlns="http://www.w3.org/2000/svg">
<path d="M28.0001 23.7581V11.7741C28.0001 11.0596 27.6189 10.3994 27.0002 10.0421L17.0002 4.268C16.3813 3.91067 15.6189 3.91066 15 4.26799L10.8857 6.64367L12.3498 8.10775L16.0001 6L26.0001 11.7741V21.7581L28.0001 23.7581Z" fill="#0D0F13"/>
<path d="M20 24.2422V26.0001H21.7579L23.7579 28.0001H20C18.8954 28.0001 18 27.1047 18 26.0001V22.2422L20 24.2422Z" fill="#0D0F13"/>
<path d="M6.97043 11.2122L6 11.7725V25.9996H12V18.4996C12 17.8892 12.3646 17.3639 12.888 17.1297L14.7579 18.9996H14V25.9996C14 27.1042 13.1046 27.9996 12 27.9996H6C4.89543 27.9996 4 27.1042 4 25.9996V11.7725C4 11.058 4.38116 10.3978 4.99992 10.0405L5.50635 9.74805L6.97043 11.2122Z" fill="#0D0F13"/>
<path fill-rule="evenodd" clip-rule="evenodd" d="M2.29289 2.29289C2.68342 1.90237 3.31658 1.90237 3.70711 2.29289L29.7071 28.2929C30.0976 28.6834 30.0976 29.3166 29.7071 29.7071C29.3166 30.0976 28.6834 30.0976 28.2929 29.7071L2.29289 3.70711C1.90237 3.31658 1.90237 2.68342 2.29289 2.29289Z" fill="#0D0F13"/>
</svg>

<?xml version="1.0" encoding="utf-8"?>
<!-- Generator: Adobe Illustrator 26.0.1, SVG Export Plug-In . SVG Version: 6.00 Build 0)  -->
<svg version="1.1" id="Layer_1" xmlns="http://www.w3.org/2000/svg" xmlns:xlink="http://www.w3.org/1999/xlink" x="0px" y="0px"
	 viewBox="0 0 32 32" style="enable-background:new 0 0 32 32;" xml:space="preserve">
<path d="M28,23.8v-12c0-0.7-0.4-1.4-1-1.7L17,4.3c-0.6-0.4-1.4-0.4-2,0l-4.1,2.4l1.5,1.5L16,6l10,5.8v10L28,23.8z M20,24.2V26h1.8
	l2,2H20c-1.1,0-2-0.9-2-2v-3.8L20,24.2z M7,11.2l-1,0.6V26h6v-7.5c0-0.6,0.4-1.1,0.9-1.4l1.9,1.9H14v7c0,1.1-0.9,2-2,2H6
	c-1.1,0-2-0.9-2-2V11.8c0-0.7,0.4-1.4,1-1.7l0.5-0.3L7,11.2z M2.3,2.3c0.4-0.4,1-0.4,1.4,0l26,26c0.4,0.4,0.4,1,0,1.4
	c-0.4,0.4-1,0.4-1.4,0l-26-26C1.9,3.3,1.9,2.7,2.3,2.3z"/>
</svg>
